assets/02_eyes/Eye 47.svg

<svg width="400" height="180" viewBox="0 0 400 180" fill="none" xmlns="http://www.w3.org/2000/svg">
<g clip-path="url(#clip0_70_1713)">
<g clip-path="url(#clip1_70_1713)">
<path d="M94.6492 144.043C68.3325 102.526 81.2094 47.1876 123.412 20.4362C165.614 -6.31515 221.156 5.65358 247.473 47.1701L94.6492 144.043Z" fill="white"/>
<path d="M171.06 95.6064C192.161 82.2311 198.599 54.5609 185.441 33.8032C172.283 13.0455 144.511 7.06094 123.411 20.4362C102.31 33.8115 95.8717 61.4818 109.03 82.2394C122.188 102.997 149.96 108.982 171.06 95.6064Z" fill="#FFCF4B"/>
<path d="M182.797 65.9082C182.797 65.9082 147.143 59.3114 139.372 92.7733C147.161 59.3002 112 50.6521 112 50.6521C142.799 57.289 154.908 26.0744 154.908 26.0744C154.908 26.0744 152.027 59.2776 182.826 65.9144L182.797 65.9082Z" fill="white"/>
</g>
<g clip-path="url(#clip2_70_1713)">
<path d="M152.295 133.88L152.001 133.423L303.357 36L303.663 36.4744C330.1 78.1271 317.917 133.406 276.275 160.21C234.633 187.013 179.225 175.215 152.295 133.88Z" fill="white"/>
<path d="M174.292 119.075L281.048 50.3597C299.98 79.7719 291.444 119.012 261.969 137.984C232.493 156.956 193.224 148.487 174.292 119.075Z" fill="#5CB94B"/>
<path d="M203.874 100.035L251.485 69.3887C259.922 82.4959 256.111 99.9825 242.976 108.437C229.84 116.892 212.328 113.13 203.891 100.023L203.874 100.035Z" fill="white"/>
</g>
</g>
<defs>
<clipPath id="clip0_70_1713">
<rect width="400" height="180" fill="white"/>
</clipPath>
<clipPath id="clip1_70_1713">
<rect width="180.94" height="89" fill="white" transform="translate(47 68.8725) rotate(-32.37)"/>
</clipPath>
<clipPath id="clip2_70_1713">
<rect width="180" height="90" fill="white" transform="translate(352.068 111.678) rotate(147.232)"/>
</clipPath>
</defs>
</svg>

<svg xmlns="http://www.w3.org/2000/svg" width="400" height="180" fill="none" viewBox="0 0 400 180"><g clip-path="url(#a)"><g clip-path="url(#b)"><path fill="#fff" d="M94.65 144.043c-26.318-41.517-13.44-96.855 28.762-123.607S221.156 5.654 247.473 47.17z"/><path fill="#ffcf4b" d="M171.06 95.606c21.101-13.375 27.539-41.045 14.381-61.803s-40.93-26.742-62.03-13.367-27.54 41.046-14.381 61.803c13.158 20.758 40.93 26.743 62.03 13.367"/><path fill="#fff" d="M182.797 65.908s-35.654-6.597-43.425 26.865C147.161 59.3 112 50.653 112 50.653c30.799 6.636 42.908-24.579 42.908-24.579s-2.881 33.204 27.918 39.84z"/></g><g clip-path="url(#c)"><path fill="#fff" d="m152.295 133.88-.294-.457L303.357 36l.306.474c26.437 41.653 14.254 96.932-27.388 123.736-41.642 26.803-97.05 15.005-123.98-26.33"/><path fill="#5cb94b" d="M174.292 119.075 281.048 50.36c18.932 29.412 10.396 68.652-19.079 87.624s-68.745 10.503-87.677-18.909"/><path fill="#fff" d="m203.874 100.035 47.611-30.646c8.437 13.107 4.626 30.594-8.509 39.048s-30.648 4.693-39.085-8.414z"/></g></g><defs><clipPath id="a"><path fill="#fff" d="M0 0h400v180H0z"/></clipPath><clipPath id="b"><path fill="#fff" d="M47 68.873 199.823-28l47.65 75.17-152.824 96.873z"/></clipPath><clipPath id="c"><path fill="#fff" d="m352.068 111.678-151.356 97.423L152 133.423 303.357 36z"/></clipPath></defs></svg>
